neru-dark-classic/22x22/places/folder-templates.svg

<?xml version="1.0" encoding="UTF-8" standalone="no"?>
<svg
   xmlns:dc="http://purl.org/dc/elements/1.1/"
   xmlns:cc="http://creativecommons.org/ns#"
   xmlns:rdf="http://www.w3.org/1999/02/22-rdf-syntax-ns#"
   xmlns:svg="http://www.w3.org/2000/svg"
   xmlns="http://www.w3.org/2000/svg"
   xmlns:sodipodi="http://sodipodi.sourceforge.net/DTD/sodipodi-0.dtd"
   xmlns:inkscape="http://www.inkscape.org/namespaces/inkscape"
   width="22"
   height="22"
   version="1.1"
   viewBox="0 0 16 16"
   id="svg7"
   sodipodi:docname="folder-templates.svg"
   inkscape:version="0.92.1 r">
  <metadata
     id="metadata11">
    <rdf:RDF>
      <cc:Work
         rdf:about="">
        <dc:format>image/svg+xml</dc:format>
        <dc:type
           rdf:resource="http://purl.org/dc/dcmitype/StillImage" />
      </cc:Work>
    </rdf:RDF>
  </metadata>
  <sodipodi:namedview
     pagecolor="#ffffff"
     bordercolor="#666666"
     borderopacity="1"
     objecttolerance="10"
     gridtolerance="10"
     guidetolerance="10"
     inkscape:pageopacity="0"
     inkscape:pageshadow="2"
     inkscape:window-width="769"
     inkscape:window-height="480"
     id="namedview9"
     showgrid="false"
     inkscape:zoom="10.727273"
     inkscape:cx="11"
     inkscape:cy="11"
     inkscape:window-x="0"
     inkscape:window-y="0"
     inkscape:window-maximized="0"
     inkscape:current-layer="svg7" />
  <defs
     id="defs3">
    <style
       id="current-color-scheme"
       type="text/css">
   .ColorScheme-Text { color:#d3dae3; } .ColorScheme-Highlight { color:#5294e2; }
  </style>
  </defs>
  <path
     style="color:#d3dae3;fill:currentColor;stroke-width:0.77575755"
     class="ColorScheme-Text"
     d="m 4.1212121,2.1818182 c -0.4297697,0 -0.7757576,0.3459878 -0.7757576,0.7757575 V 9.9393938 H 4.1212121 V 9.1636368 H 4.8969697 V 3.7333333 H 8.7757575 V 6.060606 H 11.10303 v 6.206061 0.775757 h 0.775758 v -0.775757 h 0.775757 V 5.2848485 L 9.5515151,2.1818182 Z M 11.878788,13.042424 v 0.775758 h 0.775758 v -0.775758 z m -0.775758,0 h -0.775757 v 0.775758 h 0.775757 z m -0.775757,0 V 12.266667 H 9.5515151 v 0.775757 z m -0.7757579,0 H 8.7757575 v 0.775758 h 0.7757576 z m -0.7757576,0 V 12.266667 H 8 v 0.775757 z M 8,13.042424 H 7.2242424 v 0.775758 H 8 Z m -0.7757576,0 V 12.266667 H 6.4484848 v 0.775757 z m -0.7757576,0 H 5.6727272 v 0.775758 h 0.7757576 z m -0.7757576,0 V 12.266667 H 4.8969697 v 0.775757 z m -0.7757575,0 H 4.1212121 v 0.775758 h 0.7757576 z m -0.7757576,0 V 12.266667 H 3.3454545 v 0.775757 z m 0,-0.775757 H 4.8969697 V 11.490909 H 4.1212121 Z m 0,-0.775758 V 10.715152 H 3.3454545 v 0.775757 z m 0,-0.775757 H 4.8969697 V 9.9393938 H 4.1212121 Z"
     id="path5"
     inkscape:connector-curvature="0" />
</svg>

<svg xmlns="http://www.w3.org/2000/svg" width="22" height="22" version="1.1" viewBox="0 0 16 16" id="svg7"><defs id="defs3"><style id="current-color-scheme" type="text/css"></style></defs><path d="M4.121 2.182a.774.774 0 0 0-.776.776v6.981h.776v-.775h.776v-5.43h3.879V6.06h2.327V13.042h.776v-.775h.776V5.285L9.552 2.182zm7.758 10.86v.776h.776v-.776zm-.776 0h-.776v.776h.776zm-.776 0v-.775h-.775v.775zm-.775 0h-.776v.776h.776zm-.776 0v-.775H8v.775zm-.776 0h-.776v.776H8zm-.776 0v-.775h-.776v.775zm-.776 0h-.775v.776h.775zm-.775 0v-.775h-.776v.775zm-.776 0h-.776v.776h.776zm-.776 0v-.775h-.776v.775zm0-.775h.776v-.776h-.776zm0-.776v-.776h-.776v.776zm0-.776h.776V9.94h-.776z" id="path5" color="#d3dae3" fill="currentColor" stroke-width=".776"/></svg>
